src/svg/search.svg

<?xml version="1.0" encoding="UTF-8"?>
<svg width="24px" height="24px" viewBox="0 0 24 24" version="1.1" xmlns="http://www.w3.org/2000/svg" xmlns:xlink="http://www.w3.org/1999/xlink">
    <!-- Generator: Sketch 42 (36781) - http://www.bohemiancoding.com/sketch -->
    <title>search</title>
    <desc>Created with Sketch.</desc>
    <defs></defs>
    <g id="Icons" stroke="none" stroke-width="1">
        <g id="search">
            <path d="M9.00004575,18.0000915 C11.1310566,18.0000915 13.0890665,17.2510877 14.6330744,16.0080814 L22.2911133,23.7051205 C22.6801153,24.0971225 23.3121185,24.0991225 23.7051205,23.7081205 C24.0971225,23.3181185 24.0981225,22.6851153 23.7091205,22.2941133 L16.0410815,14.5870742 C17.2640878,13.0520663 18.0000915,11.1110565 18.0000915,9.00004575 C18.0000915,4.03702052 13.963071,0 9.00004575,0 C4.03702052,0 0,4.03702052 0,9.00004575 C0,13.962071 4.03702052,18.0000915 9.00004575,18.0000915 L9.00004575,18.0000915 Z M9.00004575,2.00001017 C12.8590654,2.00001017 16.0000813,5.14002613 16.0000813,9.00004575 C16.0000813,12.8590654 12.8590654,16.0000813 9.00004575,16.0000813 C5.14002613,16.0000813 2.00001017,12.8590654 2.00001017,9.00004575 C2.00001017,5.14002613 5.14002613,2.00001017 9.00004575,2.00001017 L9.00004575,2.00001017 Z"></path>
        </g>
    </g>
</svg>

<?xml version="1.0" encoding="utf-8"?>
<!-- Generator: Adobe Illustrator 16.0.0, SVG Export Plug-In . SVG Version: 6.00 Build 0)  -->
<!DOCTYPE svg PUBLIC "-//W3C//DTD SVG 1.1//EN" "http://www.w3.org/Graphics/SVG/1.1/DTD/svg11.dtd">
<svg version="1.1" id="Filled_Icons" xmlns="http://www.w3.org/2000/svg" xmlns:xlink="http://www.w3.org/1999/xlink" x="0px"
	 y="0px" width="24px" height="24px" viewBox="0 0 24 24" enable-background="new 0 0 24 24" xml:space="preserve">
<g>
	<path d="M9,18c2.131,0,4.089-0.749,5.633-1.992l7.658,7.697c0.389,0.392,1.021,0.394,1.414,0.003
		c0.392-0.39,0.393-1.023,0.004-1.414l-7.668-7.707C17.264,13.052,18,11.111,18,9c0-4.963-4.037-9-9-9S0,4.037,0,9
		C0,13.962,4.037,18,9,18z M9,2c3.859,0,7,3.14,7,7c0,3.859-3.141,7-7,7c-3.86,0-7-3.141-7-7C2,5.14,5.14,2,9,2z"/>
</g>
</svg>
